X:1
T:Title
%%score 1 2 3
L:1/8
Q:1/4=120
M:4/4
K:G
V:1 treble nm="Grand Piano"
V:2 bass nm="Grand Piano, Melody"
V:3 bass nm="Grand Piano"
V:1
 B4 B2 B2 | G4 G4 | A2 c2 B4 | B4 B2 B2 | B4 A4 | G2 E2 B4 | B4 B2 e2 | d4 e4 | B2 B2 d4 | %9
 d4 d2 c2 | B4 G3 A | B2 B2 B4 | e4 B2 e2 | d4 e4 | B2 B2 d4 | d4 d2 c2 | B4 G3 A | B2 B2 B4 |] %18
V:2
 G,3 F, E,2 E,2 | B,4 B,4 | A,2 G,2 F,4 | G,3 F, E,2 E,2 | E4 F E3 | D2 C2 B,4 | E4 D2 E2 | %7
 B,4 G,4 | D2 B,2 A,4 | A,4 B,2 E,2 | G,2 A,2 B,2 A,2 | G,2 F,2 E,4 | E4 D2 E2 | B,4 G,4 | %14
 D2[K:bass] B,2 A,4 | A,4 B,2 E,2 | G,2 A,2 B,2 A,2 | G,2 F,2 E,4 |] %18
V:3
 E,4 E,2 B,,2 | E,4 E,4 | D,2 E,2 B,,4 | B,,4 E,2 E,2 | G,4 D,4 | G,F, E,2 B,,4 | E,4 B,2 B,2 | %7
 G,4 B,4 | A,2 G,2 D,4 | D,4 G,2 G,F, | E,4 E,4 | B,,2 B,,2 E,4 | E,4 B,2 B,2 | G,4 B,4 | %14
 A,2 G,2 D,4 | D,4 G,2 G,F, | E,4 E,4 | B,,2 B,,2 E,4 |] %18

